tools/download-figma-icons/icons/outlined-large/detached-house.svg

<svg xmlns="http://www.w3.org/2000/svg" width="64" height="64" fill="none" viewBox="0 0 64 64"><path fill="currentColor" fill-rule="evenodd" d="M38 46.5V61h16V41H42.5c-.223 0-.443-.05-.645-.146L32 36.161l-9.855 4.693A1.5 1.5 0 0 1 21.5 41H10v20h16V46.5a1.5 1.5 0 0 1 1.5-1.5h9a1.5 1.5 0 0 1 1.5 1.5M35 61h-6V48h6zM16.5 27h-3.426L7.869 38h13.292l10.194-4.854a1.5 1.5 0 0 1 1.29 0L42.839 38h13.292l-5.205-11zm4.5-3h-3v-4h3zm36 37h1.5a1.5 1.5 0 0 1 0 3h-53a1.5 1.5 0 0 1 0-3H7V41H5.5c-.514 0-.992-.264-1.268-.697a1.5 1.5 0 0 1-.087-1.445l6.625-14A1.5 1.5 0 0 1 12.125 24H15v-5.5a1.5 1.5 0 0 1 1.5-1.5h6a1.5 1.5 0 0 1 1.5 1.5V24h27.875c.58 0 1.107.334 1.355.858l6.625 14c.221.465.187 1.01-.087 1.445A1.5 1.5 0 0 1 58.5 41H57zM16 48v5h4v-5zm5.5-3h-7a1.5 1.5 0 0 0-1.5 1.5v8a1.5 1.5 0 0 0 1.5 1.5h7a1.5 1.5 0 0 0 1.5-1.5v-8a1.5 1.5 0 0 0-1.5-1.5M44 53h4v-5h-4zm5.5-8h-7a1.5 1.5 0 0 0-1.5 1.5v8a1.5 1.5 0 0 0 1.5 1.5h7a1.5 1.5 0 0 0 1.5-1.5v-8a1.5 1.5 0 0 0-1.5-1.5" clip-rule="evenodd"/></svg>

<svg width="64" height="64" viewBox="0 0 64 64" fill="none" xmlns="http://www.w3.org/2000/svg">
<path fill-rule="evenodd" clip-rule="evenodd" d="M38 46.5V61H54V41H42.5C42.277 41 42.057 40.95 41.855 40.854L32 36.161L22.145 40.854C21.943 40.95 21.723 41 21.5 41H10V61H26V46.5C26 45.672 26.672 45 27.5 45H36.5C37.328 45 38 45.672 38 46.5ZM35 61H29V48H35V61ZM16.5 27H13.074L7.869 38H21.161L31.355 33.146C31.764 32.952 32.236 32.952 32.645 33.146L42.839 38H56.131L50.926 27H22.5H16.5ZM21 24H18V20H21V24ZM57 61H58.5C59.328 61 60 61.672 60 62.5C60 63.328 59.328 64 58.5 64H55.5H36.5H27.5H8.5H5.5C4.672 64 4 63.328 4 62.5C4 61.672 4.672 61 5.5 61H7V41H5.5C4.986 41 4.508 40.736 4.232 40.303C3.958 39.868 3.924 39.323 4.145 38.858L10.77 24.858C11.018 24.334 11.545 24 12.125 24H15V18.5C15 17.672 15.672 17 16.5 17H22.5C23.328 17 24 17.672 24 18.5V24H51.875C52.455 24 52.982 24.334 53.23 24.858L59.855 38.858C60.076 39.323 60.042 39.868 59.768 40.303C59.492 40.736 59.014 41 58.5 41H57V61ZM16 48V53H20V48H16ZM21.5 45H14.5C13.672 45 13 45.672 13 46.5V54.5C13 55.328 13.672 56 14.5 56H21.5C22.328 56 23 55.328 23 54.5V46.5C23 45.672 22.328 45 21.5 45ZM44 53H48V48H44V53ZM49.5 45H42.5C41.672 45 41 45.672 41 46.5V54.5C41 55.328 41.672 56 42.5 56H49.5C50.328 56 51 55.328 51 54.5V46.5C51 45.672 50.328 45 49.5 45Z" fill="black"/>
</svg>
